X:1
Q:80
T:Skepparschottis
C:Thore Härdelin
R:Schottis
Z:ABC-transkribering av Erik Ronström 2010
M:2/4
L:1/16
K:D
D2FA d2BA|d2BA d2d2|D2FA d2BA|d2BA c4|
A2ce g2fe|g2fe a2a2|abaf gece|eddc d4:|
|:abaf dfA2|abaf dfA2|f2ed f2ed|fee^d e3f|
gage ceA2|gage ceA2|g2fe a2fe|eddc d4:|

